X:1
T:THE BLACK BEAR HORNPIPE
M:C|
L:1/8
Q:80
C:Traditional
S:March
K:HP
|: {g}A3/4B/4|
{Gdc}d{gdc}d{g}f3/4d/4a3/4f/4|
{Gdc}d{gdc}d{g}f3/4d/4a3/4f/4|  !
{gef}e{g}B{GdG}B{g}e/2d/2|
{g}c/4d3/4{g}B/4{d}c3/4{g}A3/4B/4{g}c/4{d}A3/4|
{Gdc}d{gdc}d{g}f3/4d/4a3/4f/4|  !
{Gdc}d{gdc}d{g}f3/4d/4a3/4f/4|
{gef}e{GdG}e{g}e3/4g/4{a}f3/4e/4|
{Gdc}d{g}f{Gdc}d:| |:  !
e|
{g}A{GdGe}A3/4B/4{Gdc}d{g}d/2e/2|
{gf}g{a}f/2e/2{g}f/4a3/4f/4d3/4|
{gf}g{a}f/2e/2{g}f/4a3/4f/4d3/4|  !
a/4A3/4{gAd}A{g}c/4{d}A/2{gAd}A|
{g}d/4B3/4{gBd}B{g}e/4c3/4{gcd}c|
{g}d/4f3/4{g}d/4f3/4{g}e3/4g/4{a}f/4g/2|  !
a{GdG}a{a}a/4g3/4{a}f/4e3/4:|

